outputs/icons/file/pdf_attach_sharp.svg

<svg xmlns="http://www.w3.org/2000/svg" width="1200" height="1200" fill="none"><path fill="#000" fill-rule="evenodd" d="M50 1150h1100V348.99L850.99 50H50zm750-750h250v650H150V150h650zM198 950h76V822l28.5-.05c45.175-.085 66.189-2.735 81-10.225 20.795-10.52 40.39-32.275 49.115-54.535 3.276-8.365 4.16-16.48 4.927-45.275l.934-35.085-6.016-11.92c-12.762-25.28-29.52-42.83-49.972-52.33-13.977-6.495-31.824-7.995-115.988-9.745l-68.5-1.43zm284 0 42.5-.095c68.31-.155 106.3-2.675 120.5-8 59.83-22.44 89.725-84.37 86.355-178.905-1.255-35.17-5.135-56.33-14.985-81.69-11.715-30.185-28.47-48.97-58.69-65.82l-17.055-9.505-51.81-1.955c-28.5-1.075-64.19-1.97-79.315-1.99L482 602zm298 0h74V804h140v-62H853.38l1.3-28.5c.72-15.675 1.31-33.225 1.315-39L856 664l28.5-.005c15.675 0 50.775-.595 78-1.32l49.5-1.315V602H780zM608.915 664.32c10.755 2.795 23.145 11.665 29.89 21.395 10.47 15.115 11.55 21.44 12.695 74.305 1.58 73.315-2.04 95.5-18.58 113.805-9.6 10.625-25.455 15.65-55.04 17.45L556 892.6V659.485l22.5 1.39c12.375.765 26.06 2.315 30.415 3.445m-290.291-.31c21.512 2.095 28.198 4.925 34.967 14.805 4.012 5.85 4.409 8.875 4.409 33.515 0 24.795-.382 27.65-4.526 33.875-7.743 11.625-15.83 14.12-49.616 15.315L274 762.58V662l12.5.05c6.875.03 21.331.91 32.124 1.96"/></svg>

<svg width="1200" height="1200" viewBox="0 0 1200 1200" fill="none" xmlns="http://www.w3.org/2000/svg"><path fill-rule="evenodd" d="M50 1150H1150V348.99L850.99 50H50V1150ZM800 400H1050V1050H150V150H800V400ZM198 950H274V822L302.5 821.95C347.675 821.865 368.689 819.215 383.5 811.725C404.295 801.205 423.89 779.45 432.615 757.19C435.891 748.825 436.775 740.71 437.542 711.915L438.476 676.83L432.46 664.91C419.698 639.63 402.94 622.08 382.488 612.58C368.511 606.085 350.664 604.585 266.5 602.835L198 601.405V950ZM482 950L524.5 949.905C592.81 949.75 630.8 947.23 645 941.905C704.83 919.465 734.725 857.535 731.355 763C730.1 727.83 726.22 706.67 716.37 681.31C704.655 651.125 687.9 632.34 657.68 615.49L640.625 605.985L588.815 604.03C560.315 602.955 524.625 602.06 509.5 602.04L482 602V950ZM780 950H854V804H994V742H853.38L854.68 713.5C855.4 697.825 855.99 680.275 855.995 674.5L856 664L884.5 663.995C900.175 663.995 935.275 663.4 962.5 662.675L1012 661.36V602H780V950ZM608.915 664.32C619.67 667.115 632.06 675.985 638.805 685.715C649.275 700.83 650.355 707.155 651.5 760.02C653.08 833.335 649.46 855.52 632.92 873.825C623.32 884.45 607.465 889.475 577.88 891.275L556 892.6V659.485L578.5 660.875C590.875 661.64 604.56 663.19 608.915 664.32ZM318.624 664.01C340.136 666.105 346.822 668.935 353.591 678.815C357.603 684.665 358 687.69 358 712.33C358 737.125 357.618 739.98 353.474 746.205C345.731 757.83 337.644 760.325 303.858 761.52L274 762.58V662L286.5 662.05C293.375 662.08 307.831 662.96 318.624 664.01Z" fill="black"/></svg>
